X:1
T:Irish Mazurka, The
R:mazurka
L:1/8
M:3/4
K:G
DG|B2 BA GB|d2 dB AB|c2 ce dc|(3Bcd g2 DG|
B2 BA GB|d2 dB AB|c2 cA FA|1 G4:|2 G3 g gf|]
e2 ce ce|d2 dB AB|c2 cA FA|B2 Bg gf|
e2 ce ce|d2 dB AB|c2 cA FA|1 G3 g gf:|2 G4|]
</abc>
<abc>
